packages/ffe-icons/icons/open/400/sm/tab_unselected.svg

<svg xmlns="http://www.w3.org/2000/svg" height="20" viewBox="0 -960 960 960" width="20"><path d="M132.211-192Q117-192 106.5-202.289q-10.5-10.29-10.5-25.5Q96-243 106.289-253.5q10.29-10.5 25.5-10.5Q147-264 157.5-253.711q10.5 10.29 10.5 25.5Q168-213 157.711-202.5q-10.29 10.5-25.5 10.5Zm156 0Q273-192 262.5-202.289q-10.5-10.29-10.5-25.5Q252-243 262.289-253.5q10.29-10.5 25.5-10.5Q303-264 313.5-253.711q10.5 10.29 10.5 25.5Q324-213 313.711-202.5q-10.29 10.5-25.5 10.5Zm156 0Q429-192 418.5-202.289q-10.5-10.29-10.5-25.5Q408-243 418.289-253.5q10.29-10.5 25.5-10.5Q459-264 469.5-253.711q10.5 10.29 10.5 25.5Q480-213 469.711-202.5q-10.29 10.5-25.5 10.5Zm156 0Q585-192 574.5-202.289q-10.5-10.29-10.5-25.5Q564-243 574.289-253.5q10.29-10.5 25.5-10.5Q615-264 625.5-253.711q10.5 10.29 10.5 25.5Q636-213 625.711-202.5q-10.29 10.5-25.5 10.5Zm156.052 0Q741-192 730.5-202.289q-10.5-10.29-10.5-25.5 0-15.211 10.35-25.616T756-263.81h36V-300q0-15.3 10.289-25.65 10.29-10.35 25.5-10.35Q843-336 853.5-325.619q10.5 10.38 10.5 25.725v36.106Q864-234 842.901-213q-21.098 21-50.726 21h-35.912ZM132.211-336Q117-336 106.5-346.289q-10.5-10.29-10.5-25.5Q96-387 106.289-397.5q10.29-10.5 25.5-10.5Q147-408 157.5-397.711q10.5 10.29 10.5 25.5Q168-357 157.711-346.5q-10.29 10.5-25.5 10.5Zm696-60Q813-396 802.5-406.289q-10.5-10.29-10.5-25.5Q792-447 802.289-457.5q10.29-10.5 25.5-10.5Q843-468 853.5-457.711q10.5 10.29 10.5 25.5Q864-417 853.711-406.5q-10.29 10.5-25.5 10.5Zm-696-84Q117-480 106.5-490.289q-10.5-10.29-10.5-25.5Q96-531 106.289-541.5q10.29-10.5 25.5-10.5Q147-552 157.5-541.711q10.5 10.29 10.5 25.5Q168-501 157.711-490.5q-10.29 10.5-25.5 10.5ZM480-600v-132q0-15.3 10.35-25.65Q500.7-768 516-768h276q29.7 0 50.85 21.15Q864-725.7 864-696v132q0 15.3-10.35 25.65Q843.3-528 828-528H552q-29.7 0-50.85-21.15Q480-570.3 480-600Zm-347.789-24Q117-624 106.5-634.38 96-644.761 96-660.106v-36.106Q96-726 117.099-747q21.098-21 50.726-21h35.912Q219-768 229.5-757.711q10.5 10.29 10.5 25.5 0 15.211-10.35 25.616T204-696.19h-36V-660q0 15.3-10.289 25.65-10.29 10.35-25.5 10.35Zm228-72Q345-696 334.5-706.289q-10.5-10.29-10.5-25.5Q324-747 334.289-757.5q10.29-10.5 25.5-10.5Q375-768 385.5-757.711q10.5 10.29 10.5 25.5Q396-717 385.711-706.5q-10.29 10.5-25.5 10.5Z"/></svg>

<svg xmlns="http://www.w3.org/2000/svg" height="20" viewBox="0 -960 960 960" width="20"><path d="M132.21-192q-15.21 0-25.71-10.29T96-227.79q0-15.21 10.29-25.71t25.5-10.5q15.21 0 25.71 10.29t10.5 25.5q0 15.21-10.29 25.71t-25.5 10.5Zm156 0q-15.21 0-25.71-10.29t-10.5-25.5q0-15.21 10.29-25.71t25.5-10.5q15.21 0 25.71 10.29t10.5 25.5q0 15.21-10.29 25.71t-25.5 10.5Zm156 0q-15.21 0-25.71-10.29t-10.5-25.5q0-15.21 10.29-25.71t25.5-10.5q15.21 0 25.71 10.29t10.5 25.5q0 15.21-10.29 25.71t-25.5 10.5Zm156 0q-15.21 0-25.71-10.29t-10.5-25.5q0-15.21 10.29-25.71t25.5-10.5q15.21 0 25.71 10.29t10.5 25.5q0 15.21-10.29 25.71t-25.5 10.5Zm156.05 0q-15.26 0-25.76-10.29-10.5-10.29-10.5-25.5t10.35-25.61q10.35-10.41 25.65-10.41h36V-300q0-15.3 10.29-25.65Q812.58-336 827.79-336t25.71 10.38q10.5 10.38 10.5 25.73v36.1Q864-234 842.9-213t-50.72 21h-35.92ZM132.21-336q-15.21 0-25.71-10.29T96-371.79q0-15.21 10.29-25.71t25.5-10.5q15.21 0 25.71 10.29t10.5 25.5q0 15.21-10.29 25.71t-25.5 10.5Zm696-60q-15.21 0-25.71-10.29t-10.5-25.5q0-15.21 10.29-25.71t25.5-10.5q15.21 0 25.71 10.29t10.5 25.5q0 15.21-10.29 25.71t-25.5 10.5Zm-696-84q-15.21 0-25.71-10.29T96-515.79q0-15.21 10.29-25.71t25.5-10.5q15.21 0 25.71 10.29t10.5 25.5q0 15.21-10.29 25.71t-25.5 10.5ZM480-600v-132q0-15.3 10.35-25.65Q500.7-768 516-768h276q29.7 0 50.85 21.15Q864-725.7 864-696v132q0 15.3-10.35 25.65Q843.3-528 828-528H552q-29.7 0-50.85-21.15Q480-570.3 480-600Zm-347.79-24q-15.21 0-25.71-10.38T96-660.11v-36.1Q96-726 117.1-747t50.72-21h35.92q15.26 0 25.76 10.29 10.5 10.29 10.5 25.5t-10.35 25.61Q219.3-696.19 204-696.19h-36V-660q0 15.3-10.29 25.65Q147.42-624 132.21-624Zm228-72q-15.21 0-25.71-10.29t-10.5-25.5q0-15.21 10.29-25.71t25.5-10.5q15.21 0 25.71 10.29t10.5 25.5q0 15.21-10.29 25.71t-25.5 10.5Z"/></svg>
